book-plus.svg

<svg fill="currentColor" viewBox="0 0 24 24"><path d="M13 19c0 1.1.3 2.12.81 3H6c-1.11 0-2-.89-2-2V4a2 2 0 0 1 2-2h1v7l2.5-1.5L12 9V2h6a2 2 0 0 1 2 2v9.09c-.33-.05-.66-.09-1-.09-3.31 0-6 2.69-6 6m7-1v-3h-2v3h-3v2h3v3h2v-3h3v-2z"/></svg>

<svg  viewBox="0 0 24 24" fill="currentColor"><path  d="M13 19C13 20.1 13.3 21.12 13.81 22H6C4.89 22 4 21.11 4 20V4C4 2.9 4.89 2 6 2H7V9L9.5 7.5L12 9V2H18C19.1 2 20 2.89 20 4V13.09C19.67 13.04 19.34 13 19 13C15.69 13 13 15.69 13 19M20 18V15H18V18H15V20H18V23H20V20H23V18H20Z"/></svg>
